svg/film.svg

<svg xmlns="http://www.w3.org/2000/svg" viewBox="0 0 32 32"><path d="M4 4v24h24V4H4zm2 2h2v1h2V6h12v1h2V6h2v20h-2v-1h-2v1H10v-1H8v1H6V6zm2 3v2h2V9H8zm14 0v2h2V9h-2zM8 13v2h2v-2H8zm14 0v2h2v-2h-2zM8 17v2h2v-2H8zm14 0v2h2v-2h-2zM8 21v2h2v-2H8zm14 0v2h2v-2h-2z"/></svg>

<svg xmlns="http://www.w3.org/2000/svg" viewBox="0 0 32 32" enable-background="new 0 0 32 32"><path d="M 4 4 L 4 5 L 4 27 L 4 28 L 5 28 L 27 28 L 28 28 L 28 27 L 28 5 L 28 4 L 27 4 L 5 4 L 4 4 z M 6 6 L 8 6 L 8 7 L 10 7 L 10 6 L 22 6 L 22 7 L 24 7 L 24 6 L 26 6 L 26 26 L 24 26 L 24 25 L 22 25 L 22 26 L 10 26 L 10 25 L 8 25 L 8 26 L 6 26 L 6 6 z M 8 9 L 8 11 L 10 11 L 10 9 L 8 9 z M 22 9 L 22 11 L 24 11 L 24 9 L 22 9 z M 8 13 L 8 15 L 10 15 L 10 13 L 8 13 z M 22 13 L 22 15 L 24 15 L 24 13 L 22 13 z M 8 17 L 8 19 L 10 19 L 10 17 L 8 17 z M 22 17 L 22 19 L 24 19 L 24 17 L 22 17 z M 8 21 L 8 23 L 10 23 L 10 21 L 8 21 z M 22 21 L 22 23 L 24 23 L 24 21 L 22 21 z"/></svg>
